X: 8
T: Speed The Plough
R: reel
M: 4/4
L: 1/8
K: Emin
"Em"EFGA BcBG | BcBG BcBG | "Am"A2 cA "Em"G2 BG |A2 F2 F4 | "Em"EFGA BcBG | BcBG BcBG | "Am"A2 cA "Em"G2 BG |F2 D2 "Em"E4 :: "Em"e2 e2 eBGB | e2 dc B2 G2 | "Am"A2 cA "Em"G2 BG | A2 F2 F4 |"Em"e2 e2 eBGB | e2 dc B2 G2 | "Am"A2 cA "Em"G2 BG | "B7"F2 D2 "Em"E4 |]


Tune 1191	Setting 14471

